packages/ffe-icons/icons/open/300/sm/center_focus_strong.svg

<svg xmlns="http://www.w3.org/2000/svg" height="20" viewBox="0 -960 960 960" width="20"><path d="M228.309-164.001q-27.008 0-45.658-18.65-18.65-18.65-18.65-45.658v-129.692q0-11.069 7.405-18.534Q178.811-384 189.79-384q10.98 0 18.595 7.465Q216-369.07 216-358.001v129.692q0 4.616 3.846 8.463 3.847 3.846 8.463 3.846h129.692q11.069 0 18.534 7.405Q384-201.191 384-190.211q0 10.979-7.465 18.594-7.465 7.616-18.534 7.616H228.309Zm503.382 0H601.999q-11.069 0-18.534-7.405Q576-178.811 576-189.79q0-10.98 7.465-18.595Q590.93-216 601.999-216h129.692q4.616 0 8.463-3.846 3.846-3.847 3.846-8.463v-129.692q0-11.069 7.405-18.534Q758.809-384 769.789-384q10.979 0 18.594 7.465 7.616 7.465 7.616 18.534v129.692q0 27.008-18.65 45.658-18.65 18.65-45.658 18.65Zm-567.69-437.998v-129.692q0-27.008 18.65-45.658 18.65-18.65 45.658-18.65h129.692q11.069 0 18.534 7.405Q384-781.189 384-770.21q0 10.98-7.465 18.595Q369.07-744 358.001-744H228.309q-4.616 0-8.463 3.846-3.846 3.847-3.846 8.463v129.692q0 11.069-7.405 18.534Q201.191-576 190.211-576q-10.979 0-18.594-7.465-7.616-7.465-7.616-18.534Zm579.999 0v-129.692q0-4.616-3.846-8.463-3.847-3.846-8.463-3.846H601.999q-11.069 0-18.534-7.405Q576-758.809 576-769.789q0-10.979 7.465-18.594 7.465-7.616 18.534-7.616h129.692q27.008 0 45.658 18.65 18.65 18.65 18.65 45.658v129.692q0 11.069-7.405 18.534Q781.189-576 770.21-576q-10.98 0-18.595-7.465Q744-590.93 744-601.999ZM479.774-308.001q-71.696 0-121.735-50.265-50.038-50.264-50.038-121.96t50.265-121.735q50.264-50.038 121.96-50.038t121.735 50.265q50.038 50.264 50.038 121.96t-50.265 121.735q-50.264 50.038-121.96 50.038ZM480-360q50 0 85-35t35-85q0-50-35-85t-85-35q-50 0-85 35t-35 85q0 50 35 85t85 35Zm0-120Z"/></svg>

<svg xmlns="http://www.w3.org/2000/svg" height="20" viewBox="0 -960 960 960" width="20"><path d="M228.31-164q-27.01 0-45.66-18.65Q164-201.3 164-228.31V-358q0-11.07 7.41-18.53 7.4-7.47 18.38-7.47 10.98 0 18.59 7.47Q216-369.07 216-358v129.69q0 4.62 3.85 8.46 3.84 3.85 8.46 3.85H358q11.07 0 18.53 7.4 7.47 7.41 7.47 18.39t-7.47 18.59Q369.07-164 358-164H228.31Zm503.38 0H602q-11.07 0-18.53-7.41-7.47-7.4-7.47-18.38 0-10.98 7.47-18.59Q590.93-216 602-216h129.69q4.62 0 8.46-3.85 3.85-3.84 3.85-8.46V-358q0-11.07 7.4-18.53 7.41-7.47 18.39-7.47t18.59 7.47Q796-369.07 796-358v129.69q0 27.01-18.65 45.66Q758.7-164 731.69-164ZM164-602v-129.69q0-27.01 18.65-45.66Q201.3-796 228.31-796H358q11.07 0 18.53 7.41 7.47 7.4 7.47 18.38 0 10.98-7.47 18.59Q369.07-744 358-744H228.31q-4.62 0-8.46 3.85-3.85 3.84-3.85 8.46V-602q0 11.07-7.4 18.53-7.41 7.47-18.39 7.47t-18.59-7.47Q164-590.93 164-602Zm580 0v-129.69q0-4.62-3.85-8.46-3.84-3.85-8.46-3.85H602q-11.07 0-18.53-7.4-7.47-7.41-7.47-18.39t7.47-18.59Q590.93-796 602-796h129.69q27.01 0 45.66 18.65Q796-758.7 796-731.69V-602q0 11.07-7.41 18.53-7.4 7.47-18.38 7.47-10.98 0-18.59-7.47Q744-590.93 744-602ZM479.77-308q-71.69 0-121.73-50.27Q308-408.53 308-480.23q0-71.69 50.27-121.73Q408.53-652 480.23-652q71.69 0 121.73 50.27Q652-551.47 652-479.77q0 71.69-50.27 121.73Q551.47-308 479.77-308Zm.23-52q50 0 85-35t35-85q0-50-35-85t-85-35q-50 0-85 35t-35 85q0 50 35 85t85 35Zm0-120Z"/></svg>
